cps (125/120/2)

d1 $ 
$ sound (samples "[industrial*8, click*2 perc*4]" (slow 4 $ scan 5))
#lpf (scale 1200 2400 $ slow 4 $ sine1)
#lpq 0.2

d2 $ n ( off 0.125 (*2) $ slow 2 "c3 eb3 g3 a3") 
# s "supersaw"
#lpf (scale 1200 2400 $ slow 4 $ sine1)
#lpq 0.2
#resonance (scale 0.05 0.2 $ slow 2 $ tri1)


